img/bathroom.svg

<svg width="16" height="17" viewBox="0 0 16 17" fill="none" xmlns="http://www.w3.org/2000/svg">
<path d="M14.8963 9.31785H2.12805V3.33272C2.12743 3.10732 2.17153 2.88404 2.25778 2.6758C2.34404 2.46757 2.47075 2.2785 2.63056 2.11957L2.64386 2.10627C2.89433 1.85617 3.2159 1.6895 3.56465 1.62902C3.91339 1.56854 4.27231 1.61721 4.59236 1.76837C4.2901 2.27092 4.16446 2.86007 4.23542 3.44221C4.30638 4.02434 4.56985 4.56606 4.98398 4.98129L5.34811 5.34542L4.67788 6.01568L5.43021 6.76802L6.10044 6.09778L9.81418 2.38411L10.4844 1.71387L9.73205 0.96151L9.06178 1.63174L8.69765 1.26762C8.26169 0.832873 7.68701 0.564882 7.07375 0.510342C6.46049 0.455802 5.84753 0.618172 5.34169 0.969158C4.80829 0.632299 4.17618 0.486875 3.5492 0.556774C2.92222 0.626674 2.33765 0.907741 1.89153 1.3538L1.87823 1.3671C1.61929 1.62463 1.414 1.93095 1.27424 2.26835C1.13448 2.60575 1.06303 2.96752 1.06402 3.33272V9.31785H0V10.3819H1.06402V11.4027C1.064 11.4884 1.07783 11.5736 1.10499 11.655L2.09479 14.6243C2.14762 14.7833 2.24919 14.9215 2.38508 15.0195C2.52096 15.1175 2.68426 15.1701 2.85178 15.17H3.28071L2.89281 16.5H4.00116L4.38909 15.17H11.3086L11.7076 16.5H12.8181L12.4191 15.17H13.1084C13.276 15.1701 13.4393 15.1175 13.5752 15.0195C13.7111 14.9216 13.8127 14.7833 13.8655 14.6243L14.8553 11.655C14.8824 11.5736 14.8963 11.4884 14.8963 11.4027V10.3819H15.9603V9.31785H14.8963ZM5.73641 2.01998C6.02955 1.72748 6.42674 1.56321 6.84085 1.56321C7.25496 1.56321 7.65215 1.72748 7.94529 2.01998L8.30935 2.38411L6.10054 4.59292L5.73641 4.22886C5.44393 3.93571 5.27967 3.53852 5.27967 3.12442C5.27967 2.71032 5.44393 2.31312 5.73641 2.01998ZM13.8323 11.3594L12.9168 14.1059H3.0435L2.12805 11.3594V10.3819H13.8323V11.3594Z" fill="black"/>
</svg>

<svg xmlns="http://www.w3.org/2000/svg" width="16" height="17" fill="none"><path fill="#000" d="M14.896 9.318H2.128V3.333a1.7 1.7 0 0 1 .503-1.213l.013-.014a1.72 1.72 0 0 1 1.948-.338 2.63 2.63 0 0 0 .392 3.213l.364.364-.67.67.752.753.67-.67 3.714-3.714.67-.67-.752-.752-.67.67-.364-.364A2.63 2.63 0 0 0 5.342.969a2.78 2.78 0 0 0-3.45.385l-.014.013a2.76 2.76 0 0 0-.814 1.966v5.985H0v1.064h1.064v1.02q0 .13.041.253l.99 2.97a.8.8 0 0 0 .757.545h.429l-.388 1.33H4l.388-1.33h6.92l.399 1.33h1.11l-.399-1.33h.69a.8.8 0 0 0 .757-.546l.99-2.969a.8.8 0 0 0 .04-.252v-1.021h1.064V9.318zM5.736 2.02a1.564 1.564 0 0 1 2.21 0l.363.364-2.208 2.209-.365-.364a1.564 1.564 0 0 1 0-2.209m8.096 9.34-.915 2.746H3.044l-.916-2.747v-.977h11.704z"/></svg>
